www/assets/icons/umbrella.svg

<svg xmlns="http://www.w3.org/2000/svg" width="24" height="24" viewBox="0 0 24 24" fill='currentColor'><path d="M14.5 7.42 13 6.27V3.9c0-.26.22-.48.5-.48s.5.21.5.48v.6h2v-.6c0-1.33-1.12-2.4-2.5-2.4S11 2.57 11 3.9v2.37L9.5 7.42 6 6.57l5.05 15.25c.15.45.55.68.95.68s.8-.23.95-.69L18 6.57zM13.28 9l.76.58.92-.23L13 15.3V8.79zm-3.32.59.76-.58.28-.22v6.51L9.03 9.36z"/></svg>

<svg width="24" height="24" viewBox="0 0 24 24" xmlns="http://www.w3.org/2000/svg" fill='currentColor'><path d="M14.5 7.42L13 6.27V3.9C13 3.64 13.22 3.42 13.5 3.42C13.78 3.42 14 3.63 14 3.9V4.5H16V3.9C16 2.57 14.88 1.5 13.5 1.5C12.12 1.5 11 2.57 11 3.9V6.27L9.5 7.42L6 6.57L11.05 21.82C11.2 22.27 11.6 22.5 12 22.5C12.4 22.5 12.8 22.27 12.95 21.81L18 6.57L14.5 7.42ZM13.28 9L14.04 9.58L14.96 9.35L13 15.3V8.79L13.28 9ZM9.96 9.59L10.72 9.01L11 8.79V15.3L9.03 9.36L9.96 9.59Z"/></svg>
